src/actions/32/system-suspend-hibernate.svg

<svg version="1.1" viewBox="0 0 32 32" xmlns="http://www.w3.org/2000/svg">
 <style id="current-color-scheme" type="text/css">.ColorScheme-Text {
            color:#363636;
        }</style>
 <path d="m16 1c-8.2759 0-15 6.7241-15 15s6.7241 15 15 15 15-6.7241 15-15-6.7241-15-15-15z" fill="#64728a"/>
 <path d="m21 5.9999v1l2.293-2e-7 -2.293 2.293v0.70703l4 2e-7 -1e-6 -1-2.293 1e-7 2.293-2.293v-0.70703h-0.70703zm-10.783-0.016758-0.86719 0.5 2.1465 3.7168-3.6152-0.96875-0.25781 0.9668 4.5801 1.2266 2.6406 4.5753h-5.1368l-3.3535-3.3535-0.70703 0.70703 2.6465 2.6465h-4.293v1h4.293l-2.6465 2.6465 0.70703 0.70703 3.3535-3.3535h5.1368l-2.4422 4.2319-4.5801 1.2266 0.25781 0.9668 3.6152-0.96875-2.1465 3.7168 0.86719 0.5 2.1465-3.7168 0.96875 3.6152 0.96484-0.25977-1.2266-4.5801 2.7312-4.7319 2.9296 5.0754-1.2266 4.5801 0.96484 0.25977 0.96875-3.6152 2.1465 3.7168 0.86719-0.5-2.1465-3.7168 3.6152 0.96875 0.25781-0.9668-4.5801-1.2266-2.6406-4.5754h5.137l3.3535 3.3535 0.70703-0.70703-2.6465-2.6465h4.293v-1h-4.293l2.6465-2.6465-0.70703-0.70703-3.3535 3.3535h-6.2933l8e-6 -2e-3 -2.9295-5.0734 1.2266-4.5801-0.96484-0.25977-0.96875 3.6152zm5.7831 3.0167v1l2.293-9e-7 -2.293 2.293v0.70703h4v-1h-2.293l2.293-2.293v-0.70703h-0.70703z" color="#363636" fill="#ffffff"/>
</svg>

<svg xmlns="http://www.w3.org/2000/svg" id="svg143" version="1.1" viewBox="0 0 32 32">
    <style id="current-color-scheme" type="text/css">
        .ColorScheme-Text{color:#050505;opacity:.7}
    </style>
    <path id="path139" fill="#ffe7a9" d="M16 1C7.724 1 1 7.724 1 16s6.724 15 15 15 15-6.724 15-15S24.276 1 16 1z" style="fill:#a9b8d3;fill-opacity:1"/>
    <path id="path141" fill="#000" d="M21 6v1h2.293L21 9.293V10h4V9h-2.293L25 6.707V6h-.707zm-10.783-.017-.867.5 2.146 3.717-3.615-.969-.258.967 4.58 1.227L14.844 16H9.707l-3.353-3.354-.707.707L8.293 16H4v1h4.293l-2.646 2.646.707.707L9.707 17h5.137l-2.442 4.232-4.58 1.226.258.967 3.615-.968-2.147 3.716.867.5 2.147-3.716.969 3.615.964-.26-1.226-4.58L16 17l2.93 5.075-1.227 4.58.965.26.969-3.615 2.146 3.717.867-.5-2.146-3.717 3.615.969.258-.967-4.58-1.227L17.157 17h5.136l3.354 3.353.707-.707L23.707 17H28v-1h-4.293l2.647-2.647-.707-.707L22.293 16H16v-.002l-2.93-5.074 1.227-4.58-.965-.26-.969 3.616zM16 9v1h2.293L16 12.293V13h4v-1h-2.293L20 9.707V9h-.707z" color="#050505" style="fill:#000;fill-opacity:1"/>
</svg>
